!!!!SEGMENT: pl-gd--ee-1638--006-004_marenzio-luca--il-quinto-libro-de-madrigalia-a-cinque-voci-o-qual-gratia.krn
!!!cenid: 15xx:886
!!!COM: Marenzio, Luca
!!!COM-rismID: pe30003955
!!!CDT: ~1553-1599/08/22
!!!CNT: Italian
!!!GTL: Il Quinto libro de madrigalia a cinque voci
!!!OTL: O qual gratia
!!!OMV: 004
!!!PDT: 1585
!!!AGN:
!!!SMS-siglum: PL-GD
!!!SMS-shelfmark: Ee 1638
!!!SMS-shelfwork: 006-004 G
!!!SMS-variant:
!!!SMS-altvar:
!!!NIFC-rismSourceID: 990039296
!!!NIFC-islandoraID: pl-gd:57883
!!!URL-pdf-islandora: https://repozytorium.nifc.pl/islandora/object/pl-gd%3A57883/datastream/PDF/view
!!!URL-scan: https://polish.musicsources.pl/pl/lokalizacje/galeria/klocki-introligatorskie/655 @EN{Scan on Polish Music Sources Website} @PL{Skany w portalu Dziedzictwo Muzyki Polskiej w otwartym dostępie}
!!!ONB-nifc:
!!!AIN: 2 alto 1 bass 1 soprn 1 tenor
!!!key:
**kern	**text	**kern	**text	**kern	**text	**kern	**text	**kern	**text
*part5	*part5	*part4	*part4	*part3	*part3	*part2	*part2	*part1	*part1
*staff5	*staff5	*staff4	*staff4	*staff3	*staff3	*staff2	*staff2	*staff1	*staff1
*I"BASSO	*	*I"QVINTO	*	*I"TENORE	*	*I"ALTO	*	*I"CANTO	*
*I'B	*	*I'Q	*	*I'T	*	*I'A	*	*I'S	*
*Ibass	*	*Itenor	*	*Ialto	*	*Ialto	*	*Isoprn	*
*ICvox	*	*ICvox	*	*ICvox	*	*ICvox	*	*ICvox	*
*clefC4	*	*clefC3	*	*clefC3	*	*clefC2	*	*clefG2	*
*k[]	*	*k[]	*	*k[]	*	*k[]	*	*k[]	*
*C:	*	*C:	*	*C:	*	*C:	*	*C:	*
*M2/1	*	*M2/1	*	*M2/1	*	*M2/1	*	*M2/1	*
*met(c)	*	*met(c)	*	*met(c)	*	*met(c)	*	*met(c)	*
=1-	=1-	=1-	=1-	=1-	=1-	=1-	=1-	=1-	=1-
!	!	!LO:TX:t=Quarta parte&colon;	!	!LO:TX:t=Quarta parte.	!	!LO:TX:t=Quarta parte&colon;	!	!LO:TX:t=Quarta parte&colon;	!
00r	.	0c\	Qual	0e\	Qual	0g\	Qual	1r	.
.	.	.	.	.	.	.	.	1cc\	Qual
=2-	=2-	=2-	=2-	=2-	=2-	=2-	=2-	=2-	=2-
.	.	2A/	gra-	2e\	gra-	2a\	gra-	2cc#X\	gra-
.	.	1d\	-ti-	1f#X\	-ti-	1a\	-ti-	1dd\	-ti-
.	.	4B/	-a	4g\	-a	4d/	-a	4dd\	-a
.	.	4c/	ſen-	4e\	ſen-	4g\	ſen-	4ccny\	ſen-
=3-	=3-	=3-	=3-	=3-	=3-	=3-	=3-	=3-	=3-
00r	.	2G/	-ti	2d\	-ti	2g\	-ti	2b/	-ti
.	.	4E/	ſopr'	4e\	ſopr'	4cc\	ſopr'	4gg\	ſopr'
.	.	2F/	al	2a\	al	2cc\	al	2ff\	al
.	.	4A/	tuo	4e\	tuo	4cc\	tuo	4cc\	tuo
.	.	2G/	col-	2g\	col-	2b\	col-	2dd\	col-
=4-	=4-	=4-	=4-	=4-	=4-	=4-	=4-	=4-	=4-
.	.	4G/	-le	4g\	-le	4b\	-le	4dd\	-le
.	.	4.c/	Pa-	4.g\	Pa-	4.cc\	Pa-	4.ee\	Pa-
.	.	8c/	-tria	8g\	-tria	8cc\	-tria	8ee\	-tria
!	!	!LO:SIC:v:t=custos b	!	!LO:SIC:v:t=custos d	!	!LO:SIC:v:t=custos g	!	!LO:SIC:v:t=custos dd	!
.	.	4d\	mia	4fny\	mia	4a\	mia	4dd\	mia
!	!	!LO:LB:g=original	!	!LO:LB:g=original	!	!LO:LB:g=original	!	!LO:LB:g=original	!
.	.	2B-X/	bell'-	2d\	bel-	2g\	bel-	2dd\	bel-
.	.	2A/	-in	2e\	-la_in	2a\	-la	2cc#X\	-la
=5-	=5-	=5-	=5-	=5-	=5-	=5-	=5-	=5-	=5-
00r	.	2d\	te	2f#X\	te	4r	.	4r	.
.	.	.	.	.	.	4a\	in	4dd\	in
.	.	4r	.	4r	.	2b\	te	2dd\	te
.	.	4G/	in	4g\	in	.	.	.	.
.	.	4g\	te	4e\	te	4r	.	4r	.
.	.	4f\	mi-	4d\	mi-	4a\	in	4dd\	in
.	.	4e\	-rand'	4c/	-rand'	2.cc\	te	4gg\	te
.	.	4d\	il	4d\	il	.	.	4ff\	mi-
=6-	=6-	=6-	=6-	=6-	=6-	=6-	=6-	=6-	=6-
.	.	2.c/	gior-	2.e\	gior-	.	.	4ee\	-rand'
.	.	.	.	.	.	4b\	mi-	4dd\	il
.	.	.	.	.	.	4a\	-rand'	2.ccny\	gior-
.	.	8Bny/	.	8d\	.	4g\	il	.	.
.	.	8A/	.	8c\	.	.	.	.	.
.	.	1G/	.	1d\	.	1g\	gior-	.	.
.	.	.	.	.	.	.	.	8b/	.
.	.	.	.	.	.	.	.	8a/	.
.	.	.	.	.	.	.	.	2b/	.
=7-	=7-	=7-	=7-	=7-	=7-	=7-	=7-	=7-	=7-
2r	.	2c/	-no	1e\	-no	1g\	-no	1cc\	-no
2c\	Che	4r	.	.	.	.	.	.	.
.	.	4e\	Che	.	.	.	.	.	.
4B\	mec'-	4d\	mec'-	1r	.	1r	.	1r	.
4G/	-ha-	4B/	-ha--	.	.	.	.	.	.
4A/	-uea	4c/	-uea	.	.	.	.	.	.
!	!	!LO:SIC:v:t=custos e	!	!	!	!	!	!	!
4F/	con	4d\	con	.	.	.	.	.	.
!	!	!LO:LB:g=original	!	!	!	!	!	!	!
=8-	=8-	=8-	=8-	=8-	=8-	=8-	=8-	=8-	=8-
2E/	l'un	2e\	l'un	1r	.	2g\	Che	4r	.
.	.	.	.	.	.	.	.	4gg\	Che
2r	.	2r	.	.	.	4a\	mec'-	4ff\	mec'-
.	.	.	.	.	.	4b\	-ha--	4dd\	-ha-
2r	.	1r	.	2r	.	4cc\	-uea	4ee\	-uea
!	!	!	!	!	!	!	!	!LO:SIC:v:t=custos gg	!
.	.	.	.	.	.	4a\	con	4ff#X\	con
!	!	!	!	!	!	!	!	!LO:LB:g=original	!
4r	.	.	.	4r	.	4g\	l'un	4gg\	l'un
4.G/	l'al-	.	.	4.g\	l'al-	4.b\	l'al-	4.dd\	l'al-
=9-	=9-	=9-	=9-	=9-	=9-	=9-	=9-	=9-	=9-
.	.	1r	.	.	.	.	.	.	.
8G/	-tro	.	.	8g\J	-tro	8b\	-tro	8ee\	-tro
!LO:SIC:v:t=custos E	!	!	!	!LO:SIC:v:t=custos e	!	!LO:SIC:v:t=custos g	!	!	!
4A/	mio	.	.	4e\	mio	4a\	mio	4cc\	mio
!LO:LB:g=original	!	!	!	!LO:LB:g=original	!	!LO:LB:g=original	!	!	!
2E/	ſo-	.	.	2e\	ſo-	2g#X\	ſo-	2b/	ſo-
1A\	-le	2r	.	1e\	-le	1a\	-le	1cc#X\	-le
.	.	1A/	Poi	.	.	.	.	.	.
=10-	=10-	=10-	=10-	=10-	=10-	=10-	=10-	=10-	=10-
1D/	Por	.	.	1f#X\	Poi	1a\	Poi	1dd\	Poi
.	.	1d\	car-	.	.	.	.	.	.
!	!	!	!	!	!	!LO:N:acc=#	!	!	!
1G/	car-	.	.	1g\	car-	1bn\	car-	1dd\	car-
.	.	1G/	-co	.	.	.	.	.	.
=11-	=11-	=11-	=11-	=11-	=11-	=11-	=11-	=11-	=11-
1C/	-co	.	.	1e\	-co	1gny\	-co	1ee\	-co
.	.	1c\	di	.	.	.	.	.	.
1.F/	di	.	.	1.fny\	di	1.a\	di	1.ccny\	di
.	.	2A/	pen-	.	.	.	.	.	.
=12-	=12-	=12-	=12-	=12-	=12-	=12-	=12-	=12-	=12-
.	.	1d\	-ſier	.	.	.	.	.	.
2G/	pen-	.	.	2d\	pen-	2g\	pen-	2b/	pen
1E/	-ſier	1r	.	1e\	-ſier	1g#X\	-ſier	1b\	-ſier
=13-	=13-	=13-	=13-	=13-	=13-	=13-	=13-	=13-	=13-
4A\	quel	2r	.	0r	.	4a\	quel	2r	.
4.B\	bre-	.	.	.	.	4.gny\	bre-	.	.
.	.	4r	.	.	.	.	.	4r	.
8d\	-ue	.	.	.	.	8f\	-ue	.	.
4c#X\	tem-	4e\	quel	.	.	4a\	tem-	4ee\	quel
2d\	-po	4.f\	bre-	.	.	2a\	-po	4.dd\	bre-
.	.	8a\	-ue	.	.	.	.	8cc\	-ue
2r	.	4g#X\	tem-	.	.	2r	.	4b/	tem-
.	.	4a\	-po	.	.	.	.	4a/	-po
=14-	=14-	=14-	=14-	=14-	=14-	=14-	=14-	=14-	=14-
0r	.	2d\	Ri-	4r	.	2a\	Ri-	4r	.
!	!	!	!	!	!	!	!	!LO:SIC:v:t=custos ee	!
.	.	.	.	4f\	Ri-	.	.	4dd\	Ri-
!	!	!	!	!	!	!	!	!LO:LB:g=original	!
.	.	4c/	-uol-	4g\	-uol-	4cc\	-uol-	4ee\	-uol-
.	.	4.f\	-gen-	4.a\	-gen-	4.cc\	-gen-	4.ffny\	-gen-
.	.	8f\	-do	8a\	-do	8cc\	-do	8ff\	-do
!	!	!LO:SIC:v:t=custos e	!	!	!	!LO:SIC:v:t=custos b	!	!	!
.	.	4d\	fra-	4a\	fra-	4dd\	fra-	4ff\	fra-
!	!	!LO:LB:g=original	!	!	!	!LO:LB:g=original	!	!	!
.	.	2e\	-me	2g#X\	-me	2b\	-me	2ee\	-me
=15-	=15-	=15-	=15-	=15-	=15-	=15-	=15-	=15-	=15-
4A\	quel	0r	.	4a\	quel	1r	.	1r	.
4.B\	bre-	.	.	4.g\	bre-	.	.	.	.
8d\	-ue	.	.	8f\	-ue	.	.	.	.
!	!	!	!	!LO:SIC:v:t=custos d	!	!	!	!	!
4c#X\	tem-	.	.	4e\	tem-	.	.	.	.
!	!	!	!	!LO:LB:g=original	!	!	!	!	!
4d\	-po	.	.	4d\	-po	4a\	quel	4a/	quel
4r	.	.	.	4r	.	4.g\	bre-	4.b/	bre-
!LO:SIC:v:t=custos d	!	!	!	!	!	!	!	!	!
2r	.	.	.	2r	.	.	.	.	.
.	.	.	.	.	.	8f\	-ue	8dd\	-ue
.	.	.	.	.	.	4e\	tem-	4cc#X\	tem-
!LO:LB:g=original	!	!	!	!	!	!	!	!	!
=16-	=16-	=16-	=16-	=16-	=16-	=16-	=16-	=16-	=16-
4r	.	4r	.	4r	.	4d/	-po	2dd\	-po
4d\	Ri-	4d\	Ri-	4f\	Ri-	4a\	Ri-	.	.
4cny\	-uol-	4e\	-uol-	4e\	-uol-	4a\	-uol-	2r	.
4.B-X\	-gen-	4.f\	-gen-	4.d\	-gen-	4.b-X\	-gen-	.	.
.	.	.	.	.	.	.	.	1r	.
8B-\	-do	8f\	-do	8d\	-do	8b-\	-do	.	.
4G/	fra-	4gny\	fra-	4d\	fra-	4b-\	fra-	.	.
2A/	-me	2e\	-me	2c#X/	-me	2a\	-me	.	.
=17-	=17-	=17-	=17-	=17-	=17-	=17-	=17-	=17-	=17-
1E/	mi	2r	.	1e\	mi	1g\	mi	4r	.
.	.	.	.	.	.	.	.	4b/	mi
.	.	2e\	mi	.	.	.	.	1ccny\	pa-
2F/	pa-	2A/	pa-	2c\	pa-	2a\	pa-	.	.
2D/	-ru'un	2F/	-ru'un	2f\	-ru'in	2bny\	-ru'un	2dd\	-ru'un
=18-	=18-	=18-	=18-	=18-	=18-	=18-	=18-	=18-	=18-
1C/	om-	4.c/	om-	4.g\	om-	4.cc\	om-	4.ee\	om-
.	.	8d\	.	8f\	.	8b\	.	8dd\	.
.	.	8e\	.	8e\	.	8a\	.	8cc\	.
.	.	8d\	.	8f\	.	8b\	.	8dd\	.
.	.	8c\	.	8g\	.	8cc\	.	8ee\	.
!	!	!	!	!LO:SIC:v:t=custos g	!	!LO:SIC:v:t=custos b	!	!LO:SIC:v:t=custos dd	!
.	.	8e\	.	8a\	.	8a\	.	8cc\	.
!	!	!	!	!LO:LB:g=original	!	!LO:LB:g=original	!	!LO:LB:g=original	!
1G/	-bra	2d\	.	1g\	.	2b\	.	2dd\	.
!	!	!LO:SIC:v:t=custos e	!	!	!	!	!	!	!
.	.	2d\	-bra	.	.	2b\	-bra	2dd\	-bra
!	!	!LO:LB:g=original	!	!	!	!	!	!	!
=19-	=19-	=19-	=19-	=19-	=19-	=19-	=19-	=19-	=19-
1c\	Che	1e\	Che	1g\	-bra	0r	.	2r	.
.	.	.	.	.	.	.	.	1gg\	Che
2.d\	non	2.a\	non	1r	.	.	.	.	.
.	.	.	.	.	.	.	.	2.ff\	non
4d\	ve-	4a\	ve-	.	.	.	.	.	.
=20-	=20-	=20-	=20-	=20-	=20-	=20-	=20-	=20-	=20-
2.A/	-de_a	2.a\	-de_a	0r	.	2r	.	.	.
.	.	.	.	.	.	.	.	4ee\	ve-
.	.	.	.	.	.	1cc\	Che	2.ee\	-de_a
4c\	la	4g\	la	.	.	.	.	.	.
2.G/	de-	2.g\	de-	.	.	.	.	.	.
.	.	.	.	.	.	.	.	4ee\	la
.	.	.	.	.	.	2.b\	non	2.dd\	de-
!LO:SIC:v:t=custos A	!	!	!	!	!	!	!	!	!
4G/	-ſi-	4g\	-ſi-	.	.	.	.	.	.
!LO:LB:g=original	!	!	!	!	!	!	!	!	!
=21-	=21-	=21-	=21-	=21-	=21-	=21-	=21-	=21-	=21-
2.A/	-a-	2.e\	-a-	2r	.	.	.	.	.
.	.	.	.	.	.	4a\	ve-	4cc\	-fi-
.	.	.	.	1e\	Che	2.a\	-de_a	2.cc\	-a-
4A/	-ta	4c/	-ta	.	.	.	.	.	.
1E/	ma-	2e\	ma-	.	.	.	.	.	.
.	.	.	.	.	.	4g\	la	4b/	-ta
.	.	2e\	-no	2.B/	non	2.g\	de-	2b/	ma-
=22-	=22-	=22-	=22-	=22-	=22-	=22-	=22-	=22-	=22-
2D/	-no	2r	.	.	.	.	.	4dd\	-no
.	.	.	.	4A/	ve-	4f\	-fi-	4a/	la
2D/	la	2A/	la	2.a\	-de_a	2.f\	-a-	2.dd\	de-
2.A/	de-	2.c/	de-	.	.	.	.	.	.
.	.	.	.	4a\	la	4e/	-ta	4cc\	-fi-
.	.	.	.	4e\	de-	2.a\	ma-	2.cc\	-a-
4F/	-ſi-	4c/	-ſi-	4f\	-fi-	.	.	.	.
=23-	=23-	=23-	=23-	=23-	=23-	=23-	=23-	=23-	=23-
2.G/	-a-	2g\	-a-	2.d\	-a-	.	.	.	.
.	.	.	.	.	.	4g\	.	4b/	-ta
.	.	2G/	-ta	.	.	2.g\	.	4.b/	ma-
4E/	-ta	.	.	4e\	-ta	.	.	.	.
!	!	!	!	!	!	!	!	!LO:SIC:v:t=custos dd	!
.	.	.	.	.	.	.	.	8cc#X\	.
!	!	!	!	!	!	!	!	!LO:LB:g=original	!
1D/	ma-	1d\	ma-	1A/	ma-	.	.	4.dd\	.
.	.	.	.	.	.	8f#X\	.	.	.
.	.	.	.	.	.	8e\	.	16ccny\	.
.	.	.	.	.	.	.	.	16b\	.
.	.	.	.	.	.	2f#X\	.	2a/	.
=24-	=24-	=24-	=24-	=24-	=24-	=24-	=24-	=24-	=24-
0G/l	-no.	0d\l	-no.	0G/l	-no.	0g\l	-no.	0b\l	-no.
==	==	==	==	==	==	==	==	==	==
*-	*-	*-	*-	*-	*-	*-	*-	*-	*-
!!!system-decoration: [(*)]
!!!RDF**kern: l = terminal long
!!!ENC: Andrzej Gręziak
!!!END: 2022-06-08
!!!ENC: Andrzej Borzym
!!!END: 2022-07-16
!!!YEC: Copyright 2022 Narodowy Instytut Fryderyka Chopina (https://polishscores.org)
!!!YEM: Licence CC BY 4.0 (https://creativecommons.org/licenses/by/4.0)
